static/images/supporters/coinos.svg

<svg width="224" height="72" viewBox="0 0 224 72" fill="none" xmlns="http://www.w3.org/2000/svg">
<path d="M69.8824 36C69.8824 54.7127 54.7127 69.8824 36 69.8824C17.2873 69.8824 2.11765 54.7127 2.11765 36C2.11765 17.2873 17.2873 2.11768 36 2.11768C54.7127 2.11768 69.8824 17.2873 69.8824 36Z" fill="white"/>
<path fill-rule="evenodd" clip-rule="evenodd" d="M36 4.23529C18.4568 4.23529 4.23529 18.4568 4.23529 36C4.23529 53.5432 18.4568 67.7647 36 67.7647C53.5432 67.7647 67.7647 53.5432 67.7647 36C67.7647 18.4568 53.5432 4.23529 36 4.23529ZM0 36C0 16.1177 16.1177 0 36 0C55.8823 0 72 16.1177 72 36C72 55.8823 55.8823 72 36 72C16.1177 72 0 55.8823 0 36Z" fill="black"/>
<path fill-rule="evenodd" clip-rule="evenodd" d="M36 58.5882C48.4751 58.5882 58.5882 48.4751 58.5882 36C58.5882 23.5248 48.4751 13.4117 36 13.4117C23.5249 13.4117 13.4118 23.5248 13.4118 36C13.4118 48.4751 23.5249 58.5882 36 58.5882ZM36 54C45.9411 54 54 45.9411 54 36C54 26.0589 45.9411 18 36 18C26.0589 18 18 26.0589 18 36C18 45.9411 26.0589 54 36 54Z" fill="black"/>
<path fill-rule="evenodd" clip-rule="evenodd" d="M36.0001 22.8988C36.0001 22.8988 36 22.8988 36 22.8988C28.7644 22.8988 22.8988 28.7644 22.8988 36C22.8988 43.2356 28.7644 49.1012 36 49.1012C36 49.1012 36.0001 49.1012 36.0001 49.1012V22.8988Z" fill="black"/>
<path d="M97.608 27.704C99.544 27.704 101.248 28.088 102.72 28.856C104.192 29.624 105.368 30.688 106.248 32.048C107.144 33.408 107.68 34.952 107.856 36.68H102.864C102.752 35.928 102.48 35.216 102.048 34.544C101.616 33.856 101.032 33.304 100.296 32.888C99.56 32.456 98.672 32.24 97.632 32.24C95.776 32.24 94.264 32.928 93.096 34.304C91.944 35.68 91.368 37.792 91.368 40.64C91.368 43.264 91.92 45.352 93.024 46.904C94.128 48.456 95.704 49.232 97.752 49.232C98.776 49.232 99.648 49.008 100.368 48.56C101.104 48.096 101.68 47.528 102.096 46.856C102.528 46.168 102.808 45.48 102.936 44.792H107.784C107.64 46.472 107.112 47.968 106.2 49.28C105.304 50.592 104.12 51.624 102.648 52.376C101.192 53.112 99.512 53.48 97.608 53.48C95.336 53.48 93.312 52.984 91.536 51.992C89.776 50.984 88.392 49.528 87.384 47.624C86.376 45.704 85.872 43.392 85.872 40.688C85.872 38.112 86.344 35.856 87.288 33.92C88.232 31.968 89.584 30.448 91.344 29.36C93.104 28.256 95.192 27.704 97.608 27.704ZM122.09 53.48C119.722 53.48 117.658 52.976 115.898 51.968C114.138 50.944 112.77 49.48 111.794 47.576C110.834 45.672 110.354 43.384 110.354 40.712C110.354 38.12 110.818 35.848 111.746 33.896C112.69 31.944 114.042 30.424 115.802 29.336C117.562 28.248 119.666 27.704 122.114 27.704C124.482 27.704 126.538 28.224 128.282 29.264C130.026 30.304 131.37 31.792 132.314 33.728C133.274 35.664 133.754 37.992 133.754 40.712C133.754 43.224 133.298 45.44 132.386 47.36C131.49 49.264 130.17 50.76 128.426 51.848C126.698 52.936 124.586 53.48 122.09 53.48ZM122.114 49.04C123.458 49.04 124.562 48.672 125.426 47.936C126.306 47.2 126.954 46.192 127.37 44.912C127.802 43.632 128.018 42.176 128.018 40.544C128.018 39.024 127.826 37.624 127.442 36.344C127.074 35.064 126.45 34.04 125.57 33.272C124.706 32.488 123.554 32.096 122.114 32.096C120.754 32.096 119.626 32.456 118.73 33.176C117.85 33.88 117.186 34.872 116.738 36.152C116.306 37.416 116.09 38.88 116.09 40.544C116.09 42.048 116.282 43.448 116.666 44.744C117.066 46.024 117.706 47.064 118.586 47.864C119.466 48.648 120.642 49.04 122.114 49.04ZM143.518 28.184V53H137.902V28.184H143.518ZM143.59 18.32V23.84H137.806V18.32H143.59ZM149.367 53V28.184H155.079V31.736C155.463 31.096 155.983 30.48 156.639 29.888C157.311 29.296 158.135 28.816 159.111 28.448C160.087 28.08 161.231 27.896 162.543 27.896C164.079 27.896 165.503 28.2 166.815 28.808C168.143 29.416 169.207 30.368 170.007 31.664C170.823 32.96 171.231 34.632 171.231 36.68V53H165.375V37.376C165.375 35.744 164.927 34.536 164.031 33.752C163.135 32.952 162.007 32.552 160.647 32.552C159.719 32.552 158.839 32.712 158.007 33.032C157.175 33.336 156.495 33.808 155.967 34.448C155.455 35.072 155.199 35.856 155.199 36.8V53H149.367ZM186.348 53.48C183.98 53.48 181.916 52.976 180.156 51.968C178.396 50.944 177.028 49.48 176.052 47.576C175.092 45.672 174.612 43.384 174.612 40.712C174.612 38.12 175.076 35.848 176.004 33.896C176.948 31.944 178.3 30.424 180.06 29.336C181.82 28.248 183.924 27.704 186.372 27.704C188.74 27.704 190.796 28.224 192.54 29.264C194.284 30.304 195.628 31.792 196.572 33.728C197.532 35.664 198.012 37.992 198.012 40.712C198.012 43.224 197.556 45.44 196.644 47.36C195.748 49.264 194.428 50.76 192.684 51.848C190.956 52.936 188.844 53.48 186.348 53.48ZM186.372 49.04C187.716 49.04 188.82 48.672 189.684 47.936C190.564 47.2 191.212 46.192 191.628 44.912C192.06 43.632 192.276 42.176 192.276 40.544C192.276 39.024 192.084 37.624 191.7 36.344C191.332 35.064 190.708 34.04 189.828 33.272C188.964 32.488 187.812 32.096 186.372 32.096C185.012 32.096 183.884 32.456 182.988 33.176C182.108 33.88 181.444 34.872 180.996 36.152C180.564 37.416 180.348 38.88 180.348 40.544C180.348 42.048 180.54 43.448 180.924 44.744C181.324 46.024 181.964 47.064 182.844 47.864C183.724 48.648 184.9 49.04 186.372 49.04ZM210.995 53.48C209.267 53.48 207.627 53.208 206.075 52.664C204.539 52.104 203.243 51.232 202.187 50.048C201.147 48.864 200.491 47.336 200.219 45.464H205.355C205.579 46.376 205.971 47.12 206.531 47.696C207.107 48.272 207.787 48.696 208.571 48.968C209.355 49.224 210.155 49.352 210.971 49.352C212.459 49.352 213.659 49.096 214.571 48.584C215.499 48.072 215.963 47.28 215.963 46.208C215.963 45.424 215.707 44.8 215.195 44.336C214.683 43.872 213.867 43.52 212.747 43.28L208.019 42.2C205.923 41.736 204.235 40.968 202.955 39.896C201.691 38.824 201.051 37.312 201.035 35.36C201.019 33.888 201.387 32.576 202.139 31.424C202.891 30.272 204.011 29.368 205.499 28.712C206.987 28.04 208.827 27.704 211.019 27.704C213.915 27.704 216.235 28.352 217.979 29.648C219.723 30.928 220.619 32.76 220.667 35.144H215.699C215.523 34.072 215.019 33.24 214.187 32.648C213.355 32.04 212.275 31.736 210.947 31.736C209.571 31.736 208.443 32 207.563 32.528C206.683 33.056 206.243 33.864 206.243 34.952C206.243 35.704 206.579 36.296 207.251 36.728C207.923 37.16 208.931 37.528 210.275 37.832L214.739 38.912C216.019 39.232 217.067 39.664 217.883 40.208C218.699 40.752 219.339 41.352 219.803 42.008C220.267 42.648 220.587 43.312 220.763 44C220.955 44.672 221.051 45.296 221.051 45.872C221.051 47.472 220.635 48.84 219.803 49.976C218.987 51.096 217.827 51.96 216.323 52.568C214.819 53.176 213.043 53.48 210.995 53.48Z" fill="black"/>
</svg>

<svg width="224" height="72" fill="none" xmlns="http://www.w3.org/2000/svg"><path d="M69.882 36c0 18.713-15.17 33.882-33.882 33.882-18.713 0-33.882-15.17-33.882-33.882C2.118 17.287 17.288 2.118 36 2.118c18.713 0 33.882 15.17 33.882 33.882Z" fill="#fff"/><path fill-rule="evenodd" clip-rule="evenodd" d="M36 4.235C18.457 4.235 4.235 18.457 4.235 36S18.457 67.765 36 67.765 67.765 53.543 67.765 36 53.543 4.235 36 4.235ZM0 36C0 16.118 16.118 0 36 0s36 16.118 36 36-16.118 36-36 36S0 55.882 0 36Z" fill="#000"/><path fill-rule="evenodd" clip-rule="evenodd" d="M36 58.588c12.475 0 22.588-10.113 22.588-22.588 0-12.475-10.113-22.588-22.588-22.588-12.475 0-22.588 10.113-22.588 22.588 0 12.475 10.113 22.588 22.588 22.588ZM36 54c9.941 0 18-8.059 18-18s-8.059-18-18-18-18 8.059-18 18 8.059 18 18 18Z" fill="#000"/><path fill-rule="evenodd" clip-rule="evenodd" d="M36 22.899c-7.236 0-13.101 5.865-13.101 13.101 0 7.236 5.865 13.101 13.101 13.101V22.9Z" fill="#000"/><path d="M97.608 27.704c1.936 0 3.64.384 5.112 1.152 1.472.768 2.648 1.832 3.528 3.192.896 1.36 1.432 2.904 1.608 4.632h-4.992a5.382 5.382 0 0 0-.816-2.136 4.842 4.842 0 0 0-1.752-1.656c-.736-.432-1.624-.648-2.664-.648-1.856 0-3.368.688-4.536 2.064-1.152 1.376-1.728 3.488-1.728 6.336 0 2.624.552 4.712 1.656 6.264 1.104 1.552 2.68 2.328 4.728 2.328 1.024 0 1.896-.224 2.616-.672.736-.464 1.312-1.032 1.728-1.704.432-.688.712-1.376.84-2.064h4.848c-.144 1.68-.672 3.176-1.584 4.488-.896 1.312-2.08 2.344-3.552 3.096-1.456.736-3.136 1.104-5.04 1.104-2.272 0-4.296-.496-6.072-1.488-1.76-1.008-3.144-2.464-4.152-4.368-1.008-1.92-1.512-4.232-1.512-6.936 0-2.576.472-4.832 1.416-6.768.944-1.952 2.296-3.472 4.056-4.56 1.76-1.104 3.848-1.656 6.264-1.656ZM122.09 53.48c-2.368 0-4.432-.504-6.192-1.512-1.76-1.024-3.128-2.488-4.104-4.392-.96-1.904-1.44-4.192-1.44-6.864 0-2.592.464-4.864 1.392-6.816.944-1.952 2.296-3.472 4.056-4.56 1.76-1.088 3.864-1.632 6.312-1.632 2.368 0 4.424.52 6.168 1.56 1.744 1.04 3.088 2.528 4.032 4.464.96 1.936 1.44 4.264 1.44 6.984 0 2.512-.456 4.728-1.368 6.648-.896 1.904-2.216 3.4-3.96 4.488-1.728 1.088-3.84 1.632-6.336 1.632Zm.024-4.44c1.344 0 2.448-.368 3.312-1.104.88-.736 1.528-1.744 1.944-3.024.432-1.28.648-2.736.648-4.368 0-1.52-.192-2.92-.576-4.2-.368-1.28-.992-2.304-1.872-3.072-.864-.784-2.016-1.176-3.456-1.176-1.36 0-2.488.36-3.384 1.08-.88.704-1.544 1.696-1.992 2.976-.432 1.264-.648 2.728-.648 4.392 0 1.504.192 2.904.576 4.2.4 1.28 1.04 2.32 1.92 3.12.88.784 2.056 1.176 3.528 1.176Zm21.404-20.856V53h-5.616V28.184h5.616Zm.072-9.864v5.52h-5.784v-5.52h5.784ZM149.367 53V28.184h5.712v3.552c.384-.64.904-1.256 1.56-1.848.672-.592 1.496-1.072 2.472-1.44.976-.368 2.12-.552 3.432-.552 1.536 0 2.96.304 4.272.912 1.328.608 2.392 1.56 3.192 2.856.816 1.296 1.224 2.968 1.224 5.016V53h-5.856V37.376c0-1.632-.448-2.84-1.344-3.624-.896-.8-2.024-1.2-3.384-1.2a7.29 7.29 0 0 0-2.64.48c-.832.304-1.512.776-2.04 1.416-.512.624-.768 1.408-.768 2.352V53h-5.832Zm36.981.48c-2.368 0-4.432-.504-6.192-1.512-1.76-1.024-3.128-2.488-4.104-4.392-.96-1.904-1.44-4.192-1.44-6.864 0-2.592.464-4.864 1.392-6.816.944-1.952 2.296-3.472 4.056-4.56 1.76-1.088 3.864-1.632 6.312-1.632 2.368 0 4.424.52 6.168 1.56 1.744 1.04 3.088 2.528 4.032 4.464.96 1.936 1.44 4.264 1.44 6.984 0 2.512-.456 4.728-1.368 6.648-.896 1.904-2.216 3.4-3.96 4.488-1.728 1.088-3.84 1.632-6.336 1.632Zm.024-4.44c1.344 0 2.448-.368 3.312-1.104.88-.736 1.528-1.744 1.944-3.024.432-1.28.648-2.736.648-4.368 0-1.52-.192-2.92-.576-4.2-.368-1.28-.992-2.304-1.872-3.072-.864-.784-2.016-1.176-3.456-1.176-1.36 0-2.488.36-3.384 1.08-.88.704-1.544 1.696-1.992 2.976-.432 1.264-.648 2.728-.648 4.392 0 1.504.192 2.904.576 4.2.4 1.28 1.04 2.32 1.92 3.12.88.784 2.056 1.176 3.528 1.176Zm24.623 4.44c-1.728 0-3.368-.272-4.92-.816-1.536-.56-2.832-1.432-3.888-2.616-1.04-1.184-1.696-2.712-1.968-4.584h5.136c.224.912.616 1.656 1.176 2.232.576.576 1.256 1 2.04 1.272a7.685 7.685 0 0 0 2.4.384c1.488 0 2.688-.256 3.6-.768.928-.512 1.392-1.304 1.392-2.376 0-.784-.256-1.408-.768-1.872-.512-.464-1.328-.816-2.448-1.056l-4.728-1.08c-2.096-.464-3.784-1.232-5.064-2.304-1.264-1.072-1.904-2.584-1.92-4.536-.016-1.472.352-2.784 1.104-3.936.752-1.152 1.872-2.056 3.36-2.712 1.488-.672 3.328-1.008 5.52-1.008 2.896 0 5.216.648 6.96 1.944 1.744 1.28 2.64 3.112 2.688 5.496h-4.968c-.176-1.072-.68-1.904-1.512-2.496-.832-.608-1.912-.912-3.24-.912-1.376 0-2.504.264-3.384.792-.88.528-1.32 1.336-1.32 2.424 0 .752.336 1.344 1.008 1.776.672.432 1.68.8 3.024 1.104l4.464 1.08c1.28.32 2.328.752 3.144 1.296.816.544 1.456 1.144 1.92 1.8.464.64.784 1.304.96 1.992.192.672.288 1.296.288 1.872 0 1.6-.416 2.968-1.248 4.104-.816 1.12-1.976 1.984-3.48 2.592-1.504.608-3.28.912-5.328.912Z" fill="#000"/></svg>
